X: 71
T: Intemerata Dei mater
N: Derived from Ock2003-Intemerata_Dei_mater.krn
C: Johannes Ockeghem
%%abc-version 2.0
%%abcx-abcm2ps-target-version 5.9.1 (29 Sep 2008)
%%abc-creator hum2abc beta
%%abcx-conversion-date 2019/02/17 07:26:16
%%abc-edited-by Jesse Rodin
%%abc-edited-by Jesse Rodin 8-16-2012
%%abcx-initial-encoding-date 2012/08/16/
%%humdrum-veritas 3360552109
%%humdrum-veritas-data 1512039010
%%linebreak <none>
%%barnumbers 0
L: 1/4
M: 3/1
Q: 1/2=120
V: 1 clef=treble
V: 2 clef=treble-8
V: 3 clef=treble-8
V: 4 clef=bass
V: 5 clef=bass
K: C
[V:1] E8E4 | 
[V:2] e8e4 | 
[V:3] z12 | 
[V:4] E,6A,,2A,,4 | 
[V:5] z12 | 
[V:1] G4A8 | 
[V:2] e4f8 | 
[V:3] z12 | 
[V:4] E,4D,6B,,2 | 
[V:5] z12 | 
[V:1] G4z4G4 | 
[V:2] e4e8 | 
[V:3] E8E4 | 
[V:4] B,,6G,,2C,3D, | 
[V:5] E,,12- | 
[V:1] G4A6F2 | 
[V:2] c3Bd2c2A4 | 
[V:3] E4F8 | 
[V:4] E,4A,,4D,4 | 
[V:5] E,,4D,,8 | 
[V:1] G4z2E2D4 | 
[V:2] G3AB2c2z2B2 | 
[V:3] E4G8 | 
[V:4] B,,2C,2B,,2G,,2B,,4 | 
[V:5] E,,8G,,4 | 
[V:1] F2E4C2D2B,2 | 
[V:2] c3B/A/G2A4^G2 | 
[V:3] C4E2F2D4 | 
[V:4] A,,2C,4A,,2B,,4 | 
[V:5] A,,4z4z4 | 
[V:1] C3DE3FG3F | 
[V:2] A3Bc3BG2c2 | 
[V:3] E4C3DE3F | 
[V:4] A,,8z4 | 
[V:5] z12 | 
[V:1] D2E2F3GA3G | 
[V:2] B2c2d3cA3B | 
[V:3] G3FD3EF3G | 
[V:4] z12 | 
[V:5] z12 | 
[V:1] E4z4z4 | 
[V:2] c4d2e3c2B/A/ | 
[V:3] A4G4A2E2- | 
[V:4] A,,4B,,2C,2A,,4 | 
[V:5] z4z4A,,3F,, | 
[V:1] z12 | 
[V:2] G2A2c4B2B2 | 
[V:3] E2F2E2A2G3A | 
[V:4] B,,2D,2C,3D,E,4 | 
[V:5] E,,2D,,2A,,4E,,4 | 
[V:1] z12 | 
[V:2] E4A2G2A2c2 | 
[V:3] B2c4B2A4 | 
[V:4] B,,2A,,2C,2D,2E,4 | 
[V:5] G,,2A,,4B,,2C,2A,,2 | 
[V:1] G6A3FG2- | 
[V:2] B2e4d2f2e2- | 
[V:3] B6A2d2cB- | 
[V:4] z12 | 
[V:5] E,,4G,,2F,,2D,,2E,,2 | 
[V:1] G2E2D2B,2C2B,A, | 
[V:2] e2c2B3GA2F2 | 
[V:3] BAA2z2G2C3D | 
[V:4] z12 | 
[V:5] G,,2A,,2B,,4A,,4 | 
[V:1] G,2A,2C2A,2B,4 | 
[V:2] E2F2G2A4^G2 | 
[V:3] E2A,2E2F2E4 | 
[V:4] z12 | 
[V:5] z12 | 
[V:1] A,4z4A4 | 
[V:2] A3Bc4c4 | 
[V:3] E4A8 | 
[V:4] A,,8E,4 | 
[V:5] z4z4A,,4 | 
[V:1] A8G4 | 
[V:2] d8B4 | 
[V:3] F6D2E2D2 | 
[V:4] D,3C,A,,4z2B,,2 | 
[V:5] D,,8G,,4 | 
[V:1] A4G6E2 | 
[V:2] A4c2B2G4 | 
[V:3] F4G4z4 | 
[V:4] C,2D,2E,2B,,2C,4 | 
[V:5] F,,4E,,8 | 
[V:1] F4D8 | 
[V:2] z2d4B2B2G2 | 
[V:3] A4G3FD4 | 
[V:4] D,8B,,4 | 
[V:5] D,,4G,,8 | 
[V:1] C4A,2B,2C2D2 | 
[V:2] A2c4B2A4 | 
[V:3] E8z4 | 
[V:4] A,,4z2E,4D,2 | 
[V:5] z2A,,4G,,2A,,2F,,2 | 
[V:1] z2E4D2E2C2 | 
[V:2] G3AB4EG2A | 
[V:3] z4G3AB3G | 
[V:4] E,2C,2B,,4z2E,2 | 
[V:5] E,,4z4E,,4 | 
[V:1] B,2A,2z4z4 | 
[V:2] B2c3BB2G2z2 | 
[V:3] G2E2C2D2E2G2 | 
[V:4] D,2C,2F,3G,E,3D, | 
[V:5] G,,2A,,4B,,2C,3B,, | 
[V:1] z12 | 
[V:2] c2B2c3/A/A2z2G2 | 
[V:3] A2G4F2D4 | 
[V:4] E,2D,2E,2F,3G,3/F,/E,/D,/ | 
[V:5] C,2G,,2C,2D,2B,,4 | 
[V:1] z12 | 
[V:2] A6B3AB2 | 
[V:3] E4z2F3D2E | 
[V:4] C,3D,E,2D,2F,2G,2 | 
[V:5] A,,3B,,C,2D,4G,,2 | 
[V:1] z12 | 
[V:2] A2G2c3AG2F2 | 
[V:3] F2D2FE2FG2A2- | 
[V:4] C,2B,,2A,,2C,2D,2zC,- | 
[V:5] F,,2G,,2A,,4_B,,2A,,2- | 
[V:1] z12 | 
[V:2] c2BA2GG4^F2 | 
[V:3] AG2FD4z2A2 | 
[V:4] C,D,E,2F,2D,4C,2 | 
[V:5] A,,2C,2D,2G,,2A,,4 | 
[V:1] z12 | 
[V:2] G3ED2F2E4 | 
[V:3] B3GA2B2c4 | 
[V:4] D,2E,2F,2D,2A,,4 | 
[V:5] G,,4D,4C,4 | 
[V:1] D12 | 
[V:2] D8d4 | 
[V:3] F6G6 | 
[V:4] z4B,,8 | 
[V:5] D,8z4 | 
[V:1] F8E4 | 
[V:2] d8c4 | 
[V:3] A8A4 | 
[V:4] A,,8C,4 | 
[V:5] D,,8A,,4 | 
[V:1] D4F3GA4 | 
[V:2] z4c4A4 | 
[V:3] F2G2A4c4 | 
[V:4] D,4C,4F,4 | 
[V:5] _B,,3A,,F,,8 | 
[V:1] G4A2G4^F2 | 
[V:2] B2d2c2d2c2A2 | 
[V:3] B4c2G2A4 | 
[V:4] z2D,2E,2D,2E,2=F,2 | 
[V:5] G,,4C,2B,,2C,2D,2 | 
[V:1] G8E2D2 | 
[V:2] d4B3GA2B2- | 
[V:3] G8z4 | 
[V:4] =B,,4D,4C,2D,2- | 
[V:5] z2G,,4B,,2C,2B,,2 | 
[V:1] D4z4z4 | 
[V:2] B2d2cAA4^G2 | 
[V:3] G4F2E2z2D2 | 
[V:4] D,2B,,2C,2A,,2D,4 | 
[V:5] G,,4A,,2C,2B,,4 | 
[V:1] C4F3ED2C2 | 
[V:2] A8z4 | 
[V:3] E3CD2F2G2A2- | 
[V:4] C,2A,,4C,2D,2F,2 | 
[V:5] A,,4D,,2A,,2_B,,2A,,2 | 
[V:1] E3FG2A4F2 | 
[V:2] c4B2A2c3B/A/ | 
[V:3] AGE4F2C2F2 | 
[V:4] E,2C,2z2C,2A,,2C,2 | 
[V:5] C,3A,,G,,2F,,2z2F,,2 | 
[V:1] z2A2G2E2F2D2 | 
[V:2] G2A2B2c2A3G | 
[V:3] E2F2EDC2D2F2- | 
[V:4] B,,2C,2B,,2A,,4A,2- | 
[V:5] G,,2F,,2G,,2A,,2D,,4 | 
[V:1] F3E/D/C3DE2F2 | 
[V:2] F4A4z2d2 | 
[V:3] F2A4F2E2A2 | 
[V:4] A,2F,2E,3D,G,2F,2 | 
[V:5] D,4A,,3B,,C,2D,2 | 
[V:1] G2F2E2F4E2 | 
[V:2] c2d2e2d4c2 | 
[V:3] G2A3G_B2A4 | 
[V:4] E,2D,2A,,2z2D,2C,2 | 
[V:5] z2D,2C,2D,4A,,2 | 
[V:1] D3CA,2C4E2 | 
[V:2] _B3GA6c2 | 
[V:3] F2E2F2E2A4 | 
[V:4] D,2_B,,2C,3D,E,3F, | 
[V:5] _B,,2G,,2F,,2A,,4A,,2 | 
[V:1] D2EF2DD4^C2 | 
[V:2] _B2c2_B2G2A4 | 
[V:3] D2A2F2D2E4 | 
[V:4] G,2C,2D,4z2A,,2- | 
[V:5] _B,,2A,,2B,,4A,,4 | 
[V:1] D12- | 
[V:2] z2G4A2F3G | 
[V:3] D12- | 
[V:4] A,,2_B,,4A,,2A,,4- | 
[V:5] F,,2G,,4F,,2D,,4- | 
[V:1] D12 ||  
[V:2] A12 ||  
[V:3] D12 ||  
[V:4] A,,12 ||  
[V:5] D,,12 ||  
[V:1]  [K:C] [K:clef=treble][M:2/1]G8 | 
[V:2]  [K:C] [K:clef=treble-8][M:2/1]e8 | 
[V:3]  [K:C] [K:clef=treble-8][M:2/1]E8 | 
[V:4]  [K:C] [K:clef=bass][M:2/1]z8 | 
[V:5]  [K:C] [K:clef=bass][M:2/1]z8 | 
[V:1] G4G4 | 
[V:2] e4e4 | 
[V:3] E4E4 | 
[V:4] z8 | 
[V:5] z8 | 
[V:1] G8 | 
[V:2] e6dc | 
[V:3] E8 | 
[V:4] z8 | 
[V:5] z8 | 
[V:1] G4G4- | 
[V:2] B4B4 | 
[V:3] E4E4 | 
[V:4] z8 | 
[V:5] z8 | 
[V:1] G4E4 | 
[V:2] c4c4 | 
[V:3] E8 | 
[V:4] z8 | 
[V:5] z8 | 
[V:1] F4A4- | 
[V:2] d4f4- | 
[V:3] D8 | 
[V:4] z8 | 
[V:5] z8 | 
[V:1] A2G2F4 | 
[V:2] f2e2d4 | 
[V:3] F6G2 | 
[V:4] z8 | 
[V:5] z8 | 
[V:1] E8 | 
[V:2] c8 | 
[V:3] A6GF | 
[V:4] z4C,4- | 
[V:5] z4A,,4- | 
[V:1] z8 | 
[V:2] z8 | 
[V:3] E4F4 | 
[V:4] C,4C,4 | 
[V:5] A,,4A,,4 | 
[V:1] z8 | 
[V:2] z8 | 
[V:3] G4F4- | 
[V:4] D,4C,4- | 
[V:5] B,,4A,,4- | 
[V:1] z8 | 
[V:2] z8 | 
[V:3] F4E4 | 
[V:4] C,4B,,4 | 
[V:5] A,,4G,,4 | 
[V:1] z8 | 
[V:2] z8 | 
[V:3] D8 | 
[V:4] A,,8 | 
[V:5] F,,8 | 
[V:1] z4E4- | 
[V:2] z4G4- | 
[V:3] C8 | 
[V:4] G,,8 | 
[V:5] E,,8 | 
[V:1] E2DCB,4 | 
[V:2] G4G4 | 
[V:3] E6DC | 
[V:4] z8 | 
[V:5] z8 | 
[V:1] B,4D4 | 
[V:2] G4G4 | 
[V:3] B,4B,4 | 
[V:4] z8 | 
[V:5] z8 | 
[V:1] C4D2E2- | 
[V:2] A4B2c2- | 
[V:3] A,4D2C2- | 
[V:4] z8 | 
[V:5] z8 | 
[V:1] E2D2C2D2- | 
[V:2] c2B2A2B2- | 
[V:3] C2G,2A,2G,2 | 
[V:4] z8 | 
[V:5] z8 | 
[V:1] DCA,2B,4 | 
[V:2] BAA4^G2 | 
[V:3] A,4E4 | 
[V:4] z8 | 
[V:5] z8 | 
[V:1] A,8 | 
[V:2] A8 | 
[V:3] z4E4- | 
[V:4] A,,4z2C,2- | 
[V:5] z4A,,4- | 
[V:1] z8 | 
[V:2] z8 | 
[V:3] E4G4 | 
[V:4] C,2B,,A,,B,,2C,2 | 
[V:5] A,,2G,,F,,E,,4 | 
[V:1] z8 | 
[V:2] z8 | 
[V:3] F4G4 | 
[V:4] D,4E,2D,2- | 
[V:5] D,,4G,,4 | 
[V:1] z8 | 
[V:2] z8 | 
[V:3] A4G2E2 | 
[V:4] D,2C,2B,,2C,2- | 
[V:5] F,,4G,,2A,,2- | 
[V:1] z8 | 
[V:2] z8 | 
[V:3] F3ED2E2- | 
[V:4] C,2B,,2A,,2B,,2- | 
[V:5] A,,2G,,2F,,2G,,2 | 
[V:1] z8 | 
[V:2] z8 | 
[V:3] E2D4^C2 | 
[V:4] B,,2A,,4G,,2 | 
[V:5] D,,4E,,4 | 
[V:1] z4E4- | 
[V:2] A8 | 
[V:3] D4z4 | 
[V:4] A,,8 | 
[V:5] D,,4z4 | 
[V:1] E4E4 | 
[V:2] A4A4 | 
[V:3] z8 | 
[V:4] A,,4A,,4 | 
[V:5] z8 | 
[V:1] E4G4 | 
[V:2] c6B2 | 
[V:3] z8 | 
[V:4] A,,4E,4 | 
[V:5] z8 | 
[V:1] G4G4 | 
[V:2] B4B2c2 | 
[V:3] z8 | 
[V:4] E,4E,4 | 
[V:5] z8 | 
[V:1] F6G2 | 
[V:2] d6cB | 
[V:3] z8 | 
[V:4] D,4D,4 | 
[V:5] z8 | 
[V:1] A6GF | 
[V:2] A4A4 | 
[V:3] z8 | 
[V:4] F,4F,4 | 
[V:5] z8 | 
[V:1] E4E4 | 
[V:2] c4c4 | 
[V:3] z8 | 
[V:4] A,4A,2G,F, | 
[V:5] z8 | 
[V:1] G4G4 | 
[V:2] e4e2dc | 
[V:3] z8 | 
[V:4] E,4C,4 | 
[V:5] z8 | 
[V:1] G4G2FE | 
[V:2] B4c4 | 
[V:3] z8 | 
[V:4] E,4C,4 | 
[V:5] z8 | 
[V:1] D4z4 | 
[V:2] B4e4 | 
[V:3] G4c4 | 
[V:4] z4C,4 | 
[V:5] z8 | 
[V:1] z8 | 
[V:2] d2B4c2 | 
[V:3] B2G4E2 | 
[V:4] G,4E,2C,2 | 
[V:5] z8 | 
[V:1] z8 | 
[V:2] d2B4AG | 
[V:3] F2G4FE | 
[V:4] B,,2G,,4G,,2 | 
[V:5] z8 | 
[V:1] z8 | 
[V:2] ^F2G4^F2 | 
[V:3] D4E2D2 | 
[V:4] z2G,,3A,,B,,2- | 
[V:5] z8 | 
[V:1] z8 | 
[V:2] G4A4 | 
[V:3] G2G4^F2 | 
[V:4] B,,2G,,2D,4 | 
[V:5] z8 | 
[V:1] D8 | 
[V:2] G4B4 | 
[V:3] G4G4 | 
[V:4] z4D,4 | 
[V:5] G,,8 | 
[V:1] D4D4 | 
[V:2] B4B4 | 
[V:3] G4G4 | 
[V:4] D,4D,4 | 
[V:5] G,,4G,,4 | 
[V:1] E4E4 | 
[V:2] c4c4 | 
[V:3] G4G4 | 
[V:4] C,4C,4 | 
[V:5] E,,4E,,4 | 
[V:1] F4F4 | 
[V:2] d4d4 | 
[V:3] A4A4 | 
[V:4] F,,4A,,4- | 
[V:5] D,,4D,,4 | 
[V:1] E8 | 
[V:2] c6A2 | 
[V:3] A8 | 
[V:4] A,,2B,,2C,4 | 
[V:5] A,,8 | 
[V:1] z4D4 | 
[V:2] _B4A4 | 
[V:3] F6G2 | 
[V:4] D,8 | 
[V:5] D,,8 | 
[V:1] F6D2 | 
[V:2] d4_B2A2 | 
[V:3] A4F4 | 
[V:4] D,4D,4 | 
[V:5] z8 | 
[V:1] E2C2F2A2- | 
[V:2] c4d2c2- | 
[V:3] G3FD4 | 
[V:4] C,4z2F,2- | 
[V:5] z8 | 
[V:1] A2G4^F2 | 
[V:2] c2B2A4 | 
[V:3] z4A4 | 
[V:4] F,2G,2D,4- | 
[V:5] z8 | 
[V:1] G4z4 | 
[V:2] G4d4 | 
[V:3] B6B2 | 
[V:4] D,2E,2D,2B,,2 | 
[V:5] G,,8 | 
[V:1] E4F4 | 
[V:2] c3Bd4 | 
[V:3] A4A3F | 
[V:4] C,4A,,4 | 
[V:5] A,,4D,,4 | 
[V:1] G2A4G2 | 
[V:2] z4d4 | 
[V:3] E2F2D4 | 
[V:4] G,,2F,,2A,,2B,,2 | 
[V:5] E,,2D,,2F,,2G,,2 | 
[V:1] E2F3EC2 | 
[V:2] c4A4 | 
[V:3] z2A2F2E2 | 
[V:4] C,2F,,4C,2 | 
[V:5] A,,4A,,4 | 
[V:1] D2B,2C2E2- | 
[V:2] B4A2c2 | 
[V:3] G4C4 | 
[V:4] B,,2E,3C,A,,2 | 
[V:5] G,,4A,,4 | 
[V:1] E2D2C2B,2- | 
[V:2] B4E4 | 
[V:3] G4C2G2- | 
[V:4] B,,4A,,2G,,2 | 
[V:5] G,,4A,,2E,,2 | 
[V:1] B,A,A,4^G,2 | 
[V:2] z8 | 
[V:3] GEF2D2E2 | 
[V:4] A,,4B,,4 | 
[V:5] z2F,,2G,,2E,,2 | 
[V:1] A,6D2- | 
[V:2] F4E2D2 | 
[V:3] C3DE2F2- | 
[V:4] A,,8 | 
[V:5] F,,3D,,C,,2D,,2 | 
[V:1] D2B,2C4 | 
[V:2] A8 | 
[V:3] F2F2F4 | 
[V:4] z4A,,4 | 
[V:5] F,,2D,,2A,,4 | 
[V:1] C8 ||  
[V:2] A8 ||  
[V:3] E8 ||  
[V:4] C,8 ||  
[V:5] A,,8 ||  
[V:1]  [K:C] [K:clef=treble][M:3/1]F8F4 | 
[V:2]  [K:C] [K:clef=treble-8][M:3/1]d8d4 | 
[V:3]  [K:C] [K:clef=treble-8][M:3/1]z12 | 
[V:4]  [K:C] [K:clef=bass][M:3/1]z12 | 
[V:5]  [K:C] [K:clef=bass][M:3/1]z12 | 
[V:1] E4D4F4- | 
[V:2] c3Bd4d3c | 
[V:3] z12 | 
[V:4] z12 | 
[V:5] z12 | 
[V:1] F2F2G4A4 | 
[V:2] B2A2B4A2c2 | 
[V:3] z12 | 
[V:4] z12 | 
[V:5] z12 | 
[V:1] G2E2F3EC4 | 
[V:2] B2e4d2e4 | 
[V:3] z12 | 
[V:4] z12 | 
[V:5] z12 | 
[V:1] G6G2G4- | 
[V:2] z2e4e2e4- | 
[V:3] B6B2B4- | 
[V:4] E,6E,2E,4- | 
[V:5] z12 | 
[V:1] G4G4G4 | 
[V:2] e4e4e4 | 
[V:3] B4B4c3B | 
[V:4] E,4E,4E,4 | 
[V:5] z12 | 
[V:1] A4G2E2F4 | 
[V:2] f4e4d4 | 
[V:3] d4B2c2B2A2- | 
[V:4] D,4E,2C,2D,4 | 
[V:5] z12 | 
[V:1] E2E3DE4C2 | 
[V:2] c4B2c2A4 | 
[V:3] AG/F/E2G4E2F2 | 
[V:4] A,,4G,,2C,4D,2 | 
[V:5] z12 | 
[V:1] B,4B,6B,2 | 
[V:2] G4G6G2 | 
[V:3] G4E6E2 | 
[V:4] E,4B,,6B,,2 | 
[V:5] z4E,,6E,,2 | 
[V:1] B,4z4B,4 | 
[V:2] G4A4G4 | 
[V:3] E4F4E4 | 
[V:4] B,,4C,4B,,4 | 
[V:5] E,,4A,,4E,,4 | 
[V:1] C4B,2C4B,A, | 
[V:2] A4E4F4 | 
[V:3] A4G4A4 | 
[V:4] A,,4z2C,4D,2 | 
[V:5] z4z4A,,4 | 
[V:1] C2B,4A,4^G,2 | 
[V:2] E2G4F2G4 | 
[V:3] G2E4D2E4 | 
[V:4] E,4A,,4B,,4 | 
[V:5] E,,4F,,4E,,4 | 
[V:1] A,4z4A,4 | 
[V:2] C4F4F4 | 
[V:3] E2C2C4D4 | 
[V:4] A,,12 | 
[V:5] z2F,,4D,,2D,,4 | 
[V:1] C8D4 | 
[V:2] E2A4c2B3A | 
[V:3] E4F2E2G4- | 
[V:4] z12 | 
[V:5] A,,8G,,4 | 
[V:1] E4G4F4 | 
[V:2] c8d4 | 
[V:3] G2A2G2c4B2 | 
[V:4] C,8F,4 | 
[V:5] C,4E,4D,4 | 
[V:1] E4F2G4FE | 
[V:2] e2c2d4e2dc | 
[V:3] c4z2G2E3F | 
[V:4] G,2E,2D,4C,4 | 
[V:5] C,4B,,4C,4 | 
[V:1] D6B,2A,3G, | 
[V:2] B2A2B4c4 | 
[V:3] G2A2D2G4^F2 | 
[V:4] D,8C,4 | 
[V:5] G,,2F,,2G,,4A,,4 | 
[V:1] B,2E3DD2E2G2 | 
[V:2] B4z4G4 | 
[V:3] G6F2E4 | 
[V:4] D,2G,,4A,,2B,,3C, | 
[V:5] G,,4E,,2F,,2G,,4 | 
[V:1] F2A4G4^F2 | 
[V:2] A3Bc2B2d4- | 
[V:3] D4G4A4 | 
[V:4] D,4E,4D,4 | 
[V:5] D,,4z4D,,4 | 
[V:1] G4z4E4 | 
[V:2] d2B2B4c4 | 
[V:3] G8G4 | 
[V:4] z2D,4C,D,E,4 | 
[V:5] G,,8C,4 | 
[V:1] E4F8 | 
[V:2] c6d6 | 
[V:3] G4A8 | 
[V:4] C,4F,8 | 
[V:5] C,4F,,8 | 
[V:1] E4D6C2 | 
[V:2] c4B2B4AB | 
[V:3] G4z4z4 | 
[V:4] z4F,8 | 
[V:5] C,4D,8 | 
[V:1] E4z4D4 | 
[V:2] c8z4 | 
[V:3] G4E2C2G4 | 
[V:4] E,4G,2F,2D,4 | 
[V:5] C,6A,,2_B,,4 | 
[V:1] E4A8 | 
[V:2] c4d2f4e2 | 
[V:3] z2A4B2c4- | 
[V:4] C,4F,8 | 
[V:5] A,,4F,,8 | 
[V:1] G4E2C2D4 | 
[V:2] e4c4B3A | 
[V:3] c2BAG4z4 | 
[V:4] G,4z4G,4 | 
[V:5] C,8G,,4 | 
[V:1] C4z2B,4A,2 | 
[V:2] c4B2G4F2 | 
[V:3] z4z4E2C2 | 
[V:4] C,3D,E,6A,,2 | 
[V:5] A,,4E,,4z2A,,2- | 
[V:1] C3DE4F3E | 
[V:2] A3Bc4d4- | 
[V:3] E2A2G3FA4 | 
[V:4] A,,2C,3D,E,2A,,2D,2 | 
[V:5] A,,2F,,2E,,4D,,4 | 
[V:1] G2F4E4D2 | 
[V:2] d2c4B2A2d2 | 
[V:3] B2A4G2F4 | 
[V:4] G,,2A,,4B,,2C,2A,,2 | 
[V:5] z2F,,4G,,2A,,2D,,2 | 
[V:1] E2z2z4z4 | 
[V:2] c2B3AA4^G2 | 
[V:3] E2G4D3EG2 | 
[V:4] C,2D,2E,2A,,2B,,4 | 
[V:5] A,,2G,,2E,,2F,,2G,,4 | 
[V:1] z12 | 
[V:2] A2z2z4z4 | 
[V:3] F2E3DD4^C2 | 
[V:4] D,2C,B,,2A,,A,,4G,,2 | 
[V:5] D,,2E,,2F,,4E,,4 | 
[V:1] z4z2D2EG2^F | 
[V:2] d3Bc2BG2ED2 | 
[V:3] D3G2FGDG2A2 | 
[V:4] A,,B,,2G,,A,,2G,,4D,2- | 
[V:5] D,,2z2z4z4 | 
[V:1] G2A4G2E2F2- | 
[V:2] def4d2zc2B | 
[V:3] B2A2z2B2A3F | 
[V:4] D,B,,C,2D,2B,,2C,2A,,2- | 
[V:5] G,,2F,,2D,,2G,,2A,,3D,, | 
[V:1] F2E2F2EE2D/C/B,3/A,/ | 
[V:2] d2B2c3B/A/G4 | 
[V:3] A2G2A2E2z2E2- | 
[V:4] A,,2B,,2A,,2C,3B,,/A,,/G,,2 | 
[V:5] D,,2G,,2F,,2A,,2E,,4 | 
[V:1] C2D2E2G4F2 | 
[V:2] A2B2c4d2c2 | 
[V:3] ED/C/B,2A,2E2D2z2 | 
[V:4] z2D,2C,E,2D,/C,/B,,2C,2 | 
[V:5] A,,2G,,2C,3B,,G,,2A,,2 | 
[V:1] G2A4G2E2F2 | 
[V:2] z2c4B2A2c2- | 
[V:3] D2E2F2D2C3D | 
[V:4] D,2C,2A,,2B,,2C,2A,,2 | 
[V:5] _B,,2A,,2F,,2G,,2A,,3F,, | 
[V:1] G2F4E4D2 | 
[V:2] c2d4c2A4 | 
[V:3] E2A,2A2G2F4 | 
[V:4] G,,2A,,3B,,C,2F,,4 | 
[V:5] E,,2D,,2F,,2C,,2D,,4 | 
[V:1] E12- | 
[V:2] G2A2c2B2G4 | 
[V:3] E12- | 
[V:4] C,4A,,2B,,2C,4 | 
[V:5] z2A,,4G,,2E,,4 | 
[V:1] E12 |]  
[V:2] G12 & B12 |]  
[V:3] E12 |]  
[V:4] B,,12 |]  
[V:5] E,,12 |]  



